X: 1124
T: Amy's Favourite
R: reel
M: 4/4
K: Gmajor
BG~G2 cBAc|BG~G2 EGDE|~G3A BGBd|egde ~g2z2|
bg~g2 egde|gedB BAGE|DG~G2 A2Bd|cAFA ~G2z2:|
Bd~d2 gd~d2|egde ~G3A|B2Bd eg~g2|gedB A2GA|
B2Bd eg~g2|gede ~g3a|b2ag gedB|AGAB ~G2z2|
Bd~d2 gd~d2|egde ~G3A|B2Bd eg~g2|a3g abd'2|
g3a bgag|egdB BAGE|DG~G2 A2Bd|cAFA G2z2||

